X: 5410
T: Bugle Horn, The
R: polka
M: 2/4
K: Dmajor
a2 f2 f2 d2|d4 A2 A2|d2 d2 e2 e2|fe fg f2 a2|
a2 f2 f2 d2|d4 A2 d2|g2 e2 d2 c2|d6:|
d4 A2 f2|d4 A2 f2|d2 f2 d2 f2|d4 A2 a2|
a2 f2 f2 d2|d4 A2 d2|g2 e2 d2 c2|d6:|
af fd|d2 AA|dd ee|f/e/f/g/ fa|
af fd|d2 Ad|ge dc|d3:|
d2 Af|d2 Af|df df|d2 Aa|
af fd|d2 Ad|ge dc|d3:|
af fd|d2 AA|dd ee|f/e/f/g/ fa|
af fd|d2 Ad|ee ef|d3:|
d2 Af|d2 Af|df df|d2 Aa|
af fd|d2 Ad|ee ef|d3:|

